X:75
M:9/8
L:1/8
K:D
|: def fdf a2f | efe ecA "tr"B2A | def fdf a2f | efe ecA A2A :|
|: DFA AFD | BGE | DFA AFD | ECA, | DFA AFD dcB | ABA AFD D3 :|

